X: 264
T: Miss Jane Hunter Blair's Jig
C:
R: jig
Q:
B: William Shepherd "2nd Collection" 1800 p.26 #4
F: http://imslp.org/wiki/File:PMLP73094-Shepherd_Collections_HMT.pdf
C: William Shepherd (17??-1812)
Z: 2012 John Chambers <jc:trillian.mit.edu>
M: 6/8
L: 1/8
K: D
B |\
A>FD D>EF | TF2G A>GF | TG2B A>FD | TE2F TG2B |\
A>FD D>ED | TF2G A>GF | TG2A B2A | A<Bc Td2 :|
A |\
Td2e f2d | g2f {f}e2d | B>cd A>FD |TE2F TG2B |\
Td2e f2d | g2f {f}e2d | B>cd A>FD |A<Bc Td2 ||
A |\
Td2e f2d | g2f {f}e2d | B>cd A>FD |TE2F TG2B |\
A>FD D>ED | TF2G A>GF | TG2A B2A | A<Bc Td2 :|
